images/clients/Rakuten.svg

<svg width="98" height="28" viewBox="0 0 98 28" fill="none" xmlns="http://www.w3.org/2000/svg">
<path d="M78.5233 23.4656H19.8789L24.5564 28L78.5233 23.4656Z" fill="#BF0000"/>
<path d="M87.9371 20.575V11.5062C87.9371 9.80576 89.1649 8.38876 90.919 8.38876C92.6731 8.38876 93.9009 9.80576 93.9009 11.5062V20.575H97.526V11.5062C97.526 7.76528 94.8949 4.76123 91.0359 4.76123C89.2819 4.76123 87.9371 5.72479 87.9371 5.72479V5.10131H84.312V20.5183H87.9371V20.575Z" fill="#BF0000"/>
<path d="M75.951 4.70435C71.7412 4.70435 68.7593 8.2752 68.7593 12.8096C68.7593 17.5707 72.5013 20.9149 76.3018 20.9149C78.2312 20.9149 80.6285 20.2914 82.6749 17.4574L79.4591 15.6436C77.0034 19.1578 72.8521 17.4007 72.3843 13.8298H82.7918C83.7273 8.38855 80.0438 4.70435 75.951 4.70435ZM79.1083 10.8258H72.6182C73.3783 7.25495 78.4067 7.02823 79.1083 10.8258Z" fill="#BF0000"/>
<path d="M67.5898 16.8908C67.239 17.1175 66.8297 17.2876 66.362 17.2876C65.7773 17.2876 64.6664 16.8341 64.6664 15.4171V8.78553H67.7652V5.10132H64.6664V1.24707H61.0413V5.10132H59.1118V8.78553H61.0413V15.4171C61.0413 18.8746 63.7309 20.9151 66.4204 20.9151C67.4144 20.9151 68.8177 20.575 69.9286 19.9515L67.5898 16.8908Z" fill="#BF0000"/>
<path d="M54.2588 5.10132V14.1701C54.2588 15.8705 53.031 17.2876 51.2769 17.2876C49.5228 17.2876 48.295 15.8705 48.295 14.1701V5.10132H44.6699V14.1701C44.6699 17.911 47.301 20.9151 51.16 20.9151C52.914 20.9151 54.2588 19.9515 54.2588 19.9515V20.5183H57.8839V5.10132H54.2588Z" fill="#BF0000"/>
<path d="M37.8876 12.3563L44.0853 5.10121H39.057L34.6718 10.4858V0H30.9883V20.5749H34.6718V14.2267L40.051 20.5749H45.0793L37.8876 12.3563Z" fill="#BF0000"/>
<path d="M25.3166 5.10111V5.78127C24.2057 5.10111 23.2702 4.70435 21.9254 4.70435C17.8326 4.70435 14.6753 8.33188 14.6753 12.8096C14.6753 17.2873 17.7741 20.9149 21.9254 20.9149C23.2702 20.9149 24.2642 20.5181 25.3166 19.8379V20.5181H28.9417V5.10111H25.3166ZM21.867 17.2307C19.8206 17.2307 18.3588 15.3035 18.3588 12.8663C18.3588 10.429 19.8206 8.50192 21.867 8.50192C23.9134 8.50192 25.3166 10.429 25.3166 12.8663C25.3751 15.3035 23.9134 17.2307 21.867 17.2307Z" fill="#BF0000"/>
<path d="M4.26777 20.575V14.5669H6.89887L11.5179 20.5183H16.2539L10.6409 13.3199C12.395 12.1297 13.5059 10.1459 13.5059 7.87865C13.5059 4.19444 10.407 1.24707 6.665 1.24707H0.467285V20.5183H4.26777V20.575ZM4.26777 4.93128H6.72346C8.41906 4.93128 9.82232 6.29161 9.82232 7.93533C9.82232 9.57905 8.41906 10.9394 6.72346 10.9394H4.26777V4.93128Z" fill="#BF0000"/>
</svg>

<svg xmlns="http://www.w3.org/2000/svg" width="98" height="28" fill="#bf0000" xmlns:v="https://vecta.io/nano"><path d="M78.523 23.466H19.879L24.556 28l53.967-4.534zm9.414-2.891v-9.069c0-1.7 1.228-3.117 2.982-3.117s2.982 1.417 2.982 3.117v9.069h3.625v-9.069c0-3.741-2.631-6.745-6.49-6.745-1.754 0-3.099.964-3.099.964v-.623h-3.625v15.417h3.625v.057zM75.951 4.704c-4.21 0-7.192 3.571-7.192 8.105 0 4.761 3.742 8.105 7.543 8.105 1.929 0 4.327-.623 6.373-3.457l-3.216-1.814c-2.456 3.514-6.607 1.757-7.075-1.814h10.407c.936-5.441-2.748-9.125-6.841-9.125zm3.157 6.121h-6.49c.76-3.571 5.788-3.798 6.49 0zM67.59 16.891c-.351.227-.76.397-1.228.397-.585 0-1.696-.454-1.696-1.871V8.786h3.099V5.101h-3.099V1.247h-3.625v3.854h-1.929v3.684h1.929v6.632c0 3.458 2.69 5.498 5.379 5.498.994 0 2.397-.34 3.508-.964l-2.339-3.061zM54.259 5.101v9.069c0 1.7-1.228 3.118-2.982 3.118s-2.982-1.417-2.982-3.118V5.101H44.67v9.069c0 3.741 2.631 6.745 6.49 6.745 1.754 0 3.099-.964 3.099-.964v.567h3.625V5.101h-3.625zm-16.371 7.255l6.198-7.255h-5.028l-4.385 5.385V0H30.99v20.575h3.683v-6.348l5.379 6.348h5.028l-7.192-8.219zM25.317 5.101v.68c-1.111-.68-2.046-1.077-3.391-1.077-4.093 0-7.25 3.628-7.25 8.105s3.099 8.105 7.25 8.105c1.345 0 2.339-.397 3.391-1.077v.68h3.625V5.101h-3.625zm-3.45 12.13c-2.046 0-3.508-1.927-3.508-4.364s1.462-4.364 3.508-4.364 3.45 1.927 3.45 4.364c.058 2.437-1.403 4.364-3.45 4.364zM4.268 20.575v-6.008h2.631l4.619 5.951h4.736l-5.613-7.198a6.52 6.52 0 0 0 2.865-5.441c0-3.684-3.099-6.632-6.841-6.632H.467v19.271h3.8v.057zm0-15.644h2.456c1.696 0 3.099 1.36 3.099 3.004s-1.403 3.004-3.099 3.004H4.268V4.931z"/></svg>
